X:65
T:Shrewsbury Quarry. RHu.066
T:La Belle Catherine,aka. RHu.066
S:R.Hughes MS,1823,Whitchurch,Shrops.
A:Whitchurch , Shropshire
Z:Neil Brookes 2006
M:2/4
L:1/8
Q:1/4=100
K:G
d|gg ag/2a/2|bggf|eaag|gfed|\
gg ag/2a/2|bb ba/2b/2|c’agf|g2g:|!
|:c|Bd d/2e/2d/2c/2|Bd de/2f/2|g>e a>f|gb d’>d|\
gg ag/2a/2|bb ba/2b/2|c’agf|g2g:|

